X:18177
T:Valse Minette (D. Thonon)
C:Ad Vielle Que Pourra
M:3/4
L:1/8
K:C
AB ce dc|d4c2|B2c2d2|e4c2|AB ce dc|\
d4c2|1 B2EB EB|BE EB EB:|2 B2E2B2|A6||
|:ae ae dc|d4c2|B2c2d2|e4c2|ae ae de|\
d4c2|1 B2EB EB|BE EB EB:|2 B2E2B2|A6||*
P:Var. 1
AB ce dc|de dc BA|BGcGdG|eGcEBE|AB ce dc|\
de dc BA|1 B2EB EB|
BE EB EB:|2 BE EB EB|AE AB ce||\
|:ae ae dc|de dc BA|BG cG dG|eG cE BE|
ae ae de|de dc BA|1 B2EB EB|BE EB EB:|2 B2E2B2|A6||*
P:Var. 2
E2|(3EFE (3AFE (3EFE|(3cFE (3EFE (3AEA\
|1 (3DB,D (3GDG (3BGB|(3cec (3GcG (3GEG|
